src/lib/packages/icons/src/assets/line/dislike-circle.svg

<svg width="24" height="24" viewBox="0 0 24 24" fill="none" xmlns="http://www.w3.org/2000/svg">
<path d="M12 1.25C6.072 1.25 1.25 6.072 1.25 12C1.25 17.928 6.072 22.75 12 22.75C17.928 22.75 22.75 17.928 22.75 12C22.75 6.072 17.928 1.25 12 1.25ZM12 21.25C6.899 21.25 2.75 17.101 2.75 12C2.75 6.899 6.899 2.75 12 2.75C17.101 2.75 21.25 6.899 21.25 12C21.25 17.101 17.101 21.25 12 21.25ZM16 7H9.98096C8.50196 7 8.04297 7.76697 7.76697 8.59497L6.71106 11.762C6.42806 12.614 6.49803 13.397 6.91003 13.969C7.19403 14.364 7.77405 14.833 8.92505 14.833H10.2371V15.791C10.2371 16.573 10.626 17.299 11.276 17.732C11.542 17.909 11.846 18 12.155 18C12.319 18 12.484 17.974 12.644 17.922C13.108 17.773 13.472 17.425 13.653 16.94L14.696 13.777H16C16.851 13.777 17.542 13.086 17.542 12.235V8.53998C17.542 7.69098 16.851 7 16 7ZM13.441 12.793L12.229 16.471L12.108 16.485C11.876 16.33 11.7371 16.071 11.7371 15.792V14.084C11.7371 13.67 11.4011 13.334 10.9871 13.334H8.92505C8.52305 13.334 8.23895 13.249 8.12695 13.093C8.00995 12.93 8.01301 12.603 8.13501 12.238L9.19104 9.07001C9.35104 8.58801 9.37896 8.50098 9.98096 8.50098L13.792 8.52698V12.381C13.631 12.47 13.501 12.61 13.441 12.793ZM16.042 12.236L15.292 12.253V8.53601L16.042 8.54102V12.236Z" fill="currentColor"/>
</svg>

<svg xmlns="http://www.w3.org/2000/svg" width="24" height="24" fill="none"><path fill="currentColor" d="M12 1.25C6.072 1.25 1.25 6.072 1.25 12S6.072 22.75 12 22.75 22.75 17.928 22.75 12 17.928 1.25 12 1.25Zm0 20c-5.101 0-9.25-4.149-9.25-9.25S6.899 2.75 12 2.75s9.25 4.149 9.25 9.25-4.149 9.25-9.25 9.25ZM16 7H9.981c-1.479 0-1.938.767-2.214 1.595l-1.056 3.167c-.283.852-.213 1.635.199 2.207.284.395.864.864 2.015.864h1.312v.958c0 .782.389 1.508 1.039 1.941a1.582 1.582 0 0 0 1.368.19 1.59 1.59 0 0 0 1.009-.982l1.043-3.163H16c.851 0 1.542-.691 1.542-1.542V8.54C17.542 7.691 16.851 7 16 7Zm-2.559 5.793-1.212 3.678-.121.014a.832.832 0 0 1-.37-.693v-1.708a.75.75 0 0 0-.75-.75H8.924c-.402 0-.686-.085-.798-.241-.117-.163-.114-.49.008-.855L9.191 9.07c.16-.482.188-.569.79-.569l3.811.026v3.854a.734.734 0 0 0-.351.412Zm2.601-.557-.75.017V8.536l.75.005v3.695Z"/></svg>
